X: 15
T: Coleraine, The
Z: Sean Perry
S: https://thesession.org/tunes/17#setting50959
R: jig
M: 6/8
L: 1/8
K: Amin
D|:E2A ABc|~B2e e2d|cBA ABc|B^GE ~E2D|
EAA ABc|~B2e e2d|cBA ^GAB|1 A3 A2D:|2 A3 A2B||
|:Bcc cdc|B2g g2^g|aed cBA|^GAB EF^G|
A^GA {c}BAB|cde {g}fed|cBA ^GAB|1 A3 A2B:|2 A3 A3||

